X:16
T:Trumpet Hornpipe (Craig 16)
M:C
L:1/8
B:Empire Violin Collection of Hornpipes
H:Published by Thomas Craig
H:Music Publisher, &c.
H:George Street, Aberdeen, N.B.
Z:Peter Dunk December 2011
R:hornpipe
Q:1/4=140
K:G
(3GGG G2 (3GGG G2 | BGBd gdBG | (3DDD D2 (3DDD D2 | FDFA cAFD |!
(3GGG G2 (3GGG G2 | BGBd g2g2 | fbag fed^c | d2d2d2 :|!
|:(3ddd d2 (3ddd d2 | efgf edcB | cded cBAG | FGAG FDEF |!
(3GGG G2 EGDG | (3GGG G2 EGDG | Fedc BAGF | G2G2G2 :|

